stairs-box.svg

<svg fill="currentColor" viewBox="0 0 24 24"><path d="M5 3c-1.11 0-2 .89-2 2v14c0 1.11.89 2 2 2h14c1.11 0 2-.89 2-2V5c0-1.11-.89-2-2-2zm9 4h5v2h-3v3h-3v3h-3v3H5v-2h3v-3h3v-3h3z"/></svg>

<svg  viewBox="0 0 24 24" fill="currentColor"><path  d="M5 3C3.89 3 3 3.89 3 5V19C3 20.11 3.89 21 5 21H19C20.11 21 21 20.11 21 19V5C21 3.89 20.11 3 19 3H5M14 7H19V9H16V12H13V15H10V18H5V16H8V13H11V10H14V7Z"/></svg>
